X: 35322
T: Roseland, The
R: barndance
M: 4/4
K: Bminor
|:Bd|fBdf eAce|dG (3Bcd cF^Ac|(3B^AB (3dcd (3f^ef (3b^ab|(3afd (3Adf aA (3Bcd|
fBdf eAce|dG (3Bcd cF^Ac|Bf (3dcB Ae (3cBA|(3FBc dc B2:|
K: D Major
|:(3Adf|afdc Bdga|b2 a2 a2 (3Adf|a2 g2 g2 (3Ace|g2 f2 f2 (3Adf|
afdc Bdga|ba (3^gab a2 (3Adf|(3a^ga (3=gfe (3cBA (3B=c^c|(3dcd (3cde d2:|
K: G Major
|:Bc|dGBd e^GBe|eAce f^A^cf|fBdf (3gfg (3efg|agec A2 dc|
BDGB d2 cB|(3ABc (3ABc (3cBA dc|BAGF EcEF|Dz Fz G2:|

